mobile_version/build/images/icons/header/notification.svg

<svg width="96" height="96" viewBox="0 0 96 96" fill="none" xmlns="http://www.w3.org/2000/svg">
<path d="M87.7146 80.9721L80.8467 69.5241C77.6747 64.2401 75.9987 58.188 75.9987 52.0281V42C75.9987 29.34 67.5507 18.6321 55.9986 15.18V8.00006C55.9986 3.588 52.4106 0 47.9986 0C43.5865 0 39.9985 3.588 39.9985 8.00006V15.18C28.4466 18.6321 19.9986 29.34 19.9986 42V52.0281C19.9986 58.188 18.3226 64.236 15.1546 69.5201L8.28662 80.9681C7.91462 81.5882 7.90656 82.3562 8.26262 82.9841C8.61868 83.6121 9.27868 84.0002 9.99868 84.0002H85.9986C86.7186 84.0002 87.3826 83.6123 87.7386 82.9883C88.0947 82.3641 88.0827 81.588 87.7146 80.9721Z" fill="black"/>
<path d="M35.4026 87.9999C37.6586 92.712 42.4346 96 47.9985 96C53.5623 96 58.3385 92.712 60.5945 87.9999H35.4026V87.9999Z" fill="black"/>
</svg>

<svg width="96" height="96" fill="none" xmlns="http://www.w3.org/2000/svg"><path d="M87.715 80.972l-6.868-11.448a34.005 34.005 0 01-4.848-17.496V42c0-12.66-8.448-23.368-20-26.82V8c0-4.412-3.588-8-8-8-4.413 0-8 3.588-8 8v7.18c-11.552 3.452-20 14.16-20 26.82v10.028c0 6.16-1.676 12.208-4.844 17.492L8.287 80.968a1.997 1.997 0 00-.024 2.016A1.994 1.994 0 009.999 84h76c.72 0 1.384-.388 1.74-1.012.356-.624.344-1.4-.024-2.016zM35.403 88c2.256 4.712 7.032 8 12.596 8 5.563 0 10.34-3.288 12.595-8H35.403z" fill="#000"/></svg>
